X:128
T: SCHLAF KINDLEIN SCHLAF
N: B0619
O: Europa, Mitteleuropa, Deutschland
R: Kinder -, Wiegen - Lied
M: 2/4
L: 1/16
K: F
 | A4G2G2 | F4z2
FA | c2c2B2B2 | A4z2
A2 | B2B2G2G2 | c2c2A2
A2 | B2B2G2G2 | c2c2A4
B4G2G2 | F4z4

